; generated by PrusaSlicer 2.6.1+win64 on 2024-05-23 at 13:19:27 UTC

; 

; external perimeters extrusion width = 0.42mm
; perimeters extrusion width = 0.44mm
; infill extrusion width = 0.44mm
; solid infill extrusion width = 0.44mm
; top infill extrusion width = 0.40mm
; support material extrusion width = 0.36mm
; first layer extrusion width = 0.42mm

; external perimeters extrusion width = 0.42mm
; perimeters extrusion width = 0.44mm
; infill extrusion width = 0.44mm
; solid infill extrusion width = 0.44mm
; top infill extrusion width = 0.40mm
; support material extrusion width = 0.36mm
; first layer extrusion width = 0.42mm

; external perimeters extrusion width = 0.42mm
; perimeters extrusion width = 0.44mm
; infill extrusion width = 0.44mm
; solid infill extrusion width = 0.44mm
; top infill extrusion width = 0.40mm
; support material extrusion width = 0.36mm
; first layer extrusion width = 0.42mm

; external perimeters extrusion width = 0.42mm
; perimeters extrusion width = 0.44mm
; infill extrusion width = 0.44mm
; solid infill extrusion width = 0.44mm
; top infill extrusion width = 0.40mm
; support material extrusion width = 0.36mm
; first layer extrusion width = 0.42mm

M201 X500 Y500 Z100 E5000 ; sets maximum accelerations, mm/sec^2
M203 X500 Y500 Z10 E60 ; sets maximum feedrates, mm / sec
M204 S500 T1000 ; sets acceleration (S) and retract acceleration (R), mm/sec^2
M205 X8.00 Y8.00 Z0.40 E5.00 ; sets the jerk limits, mm/sec
M205 S0 T0 ; sets the minimum extruding and travel feed rate, mm/sec
;TYPE:Custom
G90 ; use absolute coordinates
M83 ; extruder relative mode
M104 S150 ; set temporary nozzle temp to prevent oozing during homing
M140 S60 ; set final bed temp
G4 S30 ; allow partial nozzle warmup
G28 ; home all axis and restore leveling
G1 Z50 F240
G1 X2.0 Y10 F3000
M104 S215 ; set final nozzle temp
M190 S60 ; wait for bed temp to stabilize
M109 S215 ; wait for nozzle temp to stabilize
G1 Z0.28 F240
G92 E0
G1 X2.0 Y140 E10 F1500 ; prime the nozzle
G1 X2.3 Y140 F5000
G92 E0
G1 X2.3 Y10 E10 F1200 ; prime the nozzle
G92 E0
G21 ; set units to millimeters
G90 ; use absolute coordinates
M83 ; use relative distances for extrusion
; Filament gcode
M107
;LAYER_CHANGE
;Z:0.2
;HEIGHT:0.2
;BEFORE_LAYER_CHANGE
G92 E0
;0.2


G1 E-.8 F1800
G1 Z.2 F9000
;AFTER_LAYER_CHANGE
;0.2
G1 X70.966 Y67.518
G1 E.8 F1800
M204 S500
;TYPE:Skirt/Brim
;WIDTH:0.42
G1 F1200
G1 X72.173 Y66.421 E.05114
G1 X73.759 Y66.018 E.05131
G1 X131.72 Y65.957 E1.81733
G1 X133.234 Y66.316 E.04879
G1 X153.583 Y76.525 E.71382
G1 X154.821 Y77.587 E.05114
G1 X155.443 Y79.409 E.06036
G1 X155.638 Y84.3 E.15348
G1 X155.583 Y85.436 E.03566
G1 X143.488 Y149.708 E2.05058
G1 X143.078 Y150.92 E.04012
G1 X142.382 Y152.014 E.04065
G1 X141.636 Y152.76 E.03308
G1 X141.11 Y153.141 E.02036
G1 X140.322 Y153.554 E.02789
G1 X139.314 Y153.868 E.0331
G1 X138.227 Y153.982 E.03427
G1 X132.45 Y153.924 E.18114
G1 X68.923 Y143.702 E2.01747
G1 X68.29 Y143.561 E.02033
G1 X67.458 Y143.246 E.02789
G1 X66.364 Y142.551 E.04064
G1 X65.618 Y141.804 E.0331
G1 X65.112 Y141.072 E.0279
G1 X64.679 Y140.109 E.03311
G1 X64.466 Y139.245 E.0279
G1 X64.396 Y138.4 E.02659
G1 X64.407 Y128.116 E.32245
G1 X70.413 Y69.053 E1.86143
G1 X70.945 Y67.575 E.04925
; printing object Support_leds_v1.stl id:1 copy 0
;WIPE_START
G1 F7200
G1 X72.173 Y66.421 E-.40022
G1 X73.759 Y66.018 E-.38865
G1 X73.806 Y66.018 E-.01113
;WIPE_END
G1 X151.91 Y84.812 F9000
G1 E.8 F1800
;TYPE:Support material interface
;WIDTH:0.36
G1 F1200
G1 X151.647 Y84.812 E.00693
G1 X151.684 Y84.775 E.00138
G1 X151.684 Y79.544 E.13792
G1 X152.069 Y79.544 E.01015
G1 X152.069 Y84.812 E.13889
G1 X152.264 Y84.812 E.00514
G1 X152.264 Y84.435 E.00994
;WIPE_START
G1 F7200
G1 X152.264 Y84.812 E-.08954
G1 X152.069 Y84.812 E-.04631
G1 X152.069 Y82.016 E-.66415
;WIPE_END
G1 X149.776 Y83.541 F9000
G1 E.8 F1800
;TYPE:Perimeter
;WIDTH:0.419999
G1 F1200
G1 X139.962 Y83.552 E.30771
G1 X139.627 Y83.671 E.01115
G1 X139.305 Y83.985 E.0141
G1 X139.163 Y84.483 E.01624
G1 X139.163 Y147.966 E1.99046
G1 X139.137 Y148.756 E.02478
G1 X139.049 Y149.036 E.0092
G1 X138.867 Y149.27 E.00929
G1 X138.556 Y149.473 E.01164
G1 X138.195 Y149.541 E.01152
G1 X133.314 Y149.541 E.15304
G1 X132.956 Y149.488 E.01135
G1 X132.611 Y149.3 E.01232
G1 X132.374 Y148.963 E.01292
G1 X132.297 Y148.672 E.00944
G1 X132.291 Y148.082 E.0185
G1 X132.515 Y148.461 E.0138
G1 X132.832 Y148.628 E.01123
G1 X133.106 Y148.669 E.00869
G1 X137.349 Y148.669 E.13304
G1 X137.511 Y148.655 E.0051
G1 X137.869 Y148.512 E.01209
G1 X138.085 Y148.314 E.00919
G1 X138.277 Y147.889 E.01462
G1 X138.291 Y147.726 E.00513
G1 X138.291 Y80.669 E2.10252
G1 X149.776 Y80.669 E.3601
G1 X149.776 Y83.481 E.08817
G1 X150.153 Y83.918 F9000
G1 F1200
G1 X140.106 Y83.918 E.31502
G1 X139.819 Y83.996 E.00933
G1 X139.625 Y84.184 E.00847
G1 X139.54 Y84.483 E.00975
G1 X139.54 Y148.511 E2.00755
G1 X139.498 Y148.918 E.01283
G1 X139.318 Y149.311 E.01355
G1 X139.06 Y149.602 E.01219
G1 X138.691 Y149.828 E.01357
G1 X138.206 Y149.918 E.01547
G1 X133.314 Y149.918 E.15338
G1 X133.01 Y149.887 E.00958
G1 X132.708 Y149.797 E.00988
G1 X132.434 Y149.636 E.00996
G1 X132.207 Y149.412 E.01
G1 X132.004 Y149.069 E.0125
G1 X131.914 Y148.568 E.01596
;WIDTH:0.461465
G1 X131.935 Y148.288 E.00977
;WIDTH:0.50293
G1 X131.956 Y148.008 E.01074
;WIDTH:0.544395
G1 X131.976 Y147.727 E.01175
G1 X131.973 Y138.718 E.37566
;WIDTH:0.538234
G1 X132.022 Y138.493 E.00948
G1 X132.153 Y138.391 E.00684
G1 X132.321 Y138.391 E.00692
G1 X132.435 Y138.514 E.00691
G1 X132.469 Y138.718 E.00852
;WIDTH:0.544395
G1 X132.478 Y147.727 E.37566
;WIDTH:0.551052
G1 X132.484 Y147.835 E.00457
G1 X132.573 Y147.946 E.00601
;WIDTH:0.507368
G1 X132.662 Y148.056 E.00546
;WIDTH:0.463684
G1 X132.751 Y148.167 E.00498
;WIDTH:0.419999
G1 X132.877 Y148.244 E.00463
G1 X133.106 Y148.292 E.00734
G1 X137.349 Y148.292 E.13304
G1 X137.661 Y148.198 E.01022
G1 X137.829 Y148.024 E.00758
G1 X137.914 Y147.726 E.00972
G1 X137.914 Y80.292 E2.11434
G1 X150.153 Y80.292 E.38374
G1 X150.153 Y82.105 E.05685
G1 X150.153 Y83.858 E.05496
G1 X150.53 Y84.295 F9000
;TYPE:External perimeter
G1 F1200
G1 X140.106 Y84.295 E.32684
G1 X140.01 Y84.321 E.00312
G1 X139.917 Y84.483 E.00586
G1 X139.917 Y148.511 E2.00755
G1 X139.866 Y149.009 E.0157
G1 X139.722 Y149.389 E.01274
G1 X139.491 Y149.724 E.01276
G1 X139.186 Y149.994 E.01277
G1 X138.826 Y150.183 E.01275
G1 X138.218 Y150.295 E.01938
G1 X133.314 Y150.295 E.15376
G1 X132.965 Y150.261 E.01099
G1 X132.574 Y150.15 E.01274
G1 X132.22 Y149.946 E.01281
G1 X131.925 Y149.662 E.01284
G1 X131.648 Y149.203 E.01681
G1 X131.537 Y148.595 E.01938
G1 X131.537 Y138.718 E.30969
G1 X131.626 Y138.279 E.01404
G1 X131.853 Y138.032 E.01052
G1 X132.17 Y137.923 E.01051
G1 X132.502 Y137.979 E.01056
G1 X132.767 Y138.185 E.01052
G1 X132.904 Y138.5 E.01077
G1 X132.917 Y147.726 E.28927
G1 X132.988 Y147.873 E.00512
G1 X133.106 Y147.915 E.00393
G1 X137.349 Y147.915 E.13304
G1 X137.47 Y147.87 E.00405
G1 X137.537 Y147.726 E.00498
G1 X137.537 Y79.915 E2.12616
G1 X150.53 Y79.915 E.40739
G1 X150.53 Y84.235 E.13545
G1 X150.132 Y84.251 F9000
;WIPE_START
G1 F7200
G1 X147.162 Y84.254 E-.8
;WIPE_END
G1 X149.655 Y81.553 F9000
G1 E.8 F1800
;TYPE:Solid infill
;WIDTH:0.420547
G1 F1200
G1 X149.062 Y80.959 E.02635
G1 X148.527 Y80.959 E.0168
G1 X149.486 Y81.917 E.04256
G1 X149.486 Y82.451 E.01677
G1 X147.993 Y80.959 E.06628
G1 X147.459 Y80.959 E.01677
G1 X149.486 Y82.985 E.08999
G1 X149.486 Y83.25 E.00832
G1 X149.216 Y83.25 E.00848
G1 X146.925 Y80.959 E.10173
G1 X146.391 Y80.959 E.01677
G1 X148.682 Y83.25 E.10173
G1 X148.148 Y83.25 E.01677
G1 X145.857 Y80.959 E.10173
G1 X145.323 Y80.959 E.01677
G1 X147.614 Y83.25 E.10173
G1 X147.08 Y83.25 E.01677
G1 X144.789 Y80.959 E.10173
G1 X144.255 Y80.959 E.01677
G1 X146.546 Y83.25 E.10173
G1 X146.012 Y83.25 E.01677
G1 X143.721 Y80.959 E.10173
G1 X143.187 Y80.959 E.01677
G1 X145.478 Y83.25 E.10173
G1 X144.944 Y83.25 E.01677
G1 X142.653 Y80.959 E.10173
G1 X142.119 Y80.959 E.01677
G1 X144.41 Y83.25 E.10173
G1 X143.876 Y83.25 E.01677
G1 X141.585 Y80.959 E.10173
G1 X141.051 Y80.959 E.01677
G1 X143.342 Y83.25 E.10173
G1 X142.808 Y83.25 E.01677
G1 X140.517 Y80.959 E.10173
G1 X139.983 Y80.959 E.01677
G1 X142.274 Y83.25 E.10173
G1 X141.74 Y83.25 E.01677
G1 X139.449 Y80.959 E.10173
G1 X138.915 Y80.959 E.01677
G1 X141.206 Y83.25 E.10173
G1 X140.672 Y83.25 E.01677
G1 X138.582 Y81.16 E.09281
G1 X138.582 Y81.694 E.01677
G1 X140.138 Y83.25 E.0691
G1 X139.912 Y83.265 E.00711
G1 X139.695 Y83.342 E.00723
G1 X138.582 Y82.228 E.04945
G1 X138.582 Y82.762 E.01677
G1 X139.356 Y83.537 E.03439
G1 X139.086 Y83.801 E.01186
G1 X138.582 Y83.296 E.0224
G1 X138.582 Y83.83 E.01677
G1 X138.95 Y84.199 E.01636
G1 X138.873 Y84.469 E.00882
G1 X138.873 Y84.655 E.00584
G1 X138.582 Y84.364 E.01292
G1 X138.582 Y84.898 E.01677
G1 X138.873 Y85.189 E.01292
G1 X138.873 Y85.724 E.0168
G1 X138.582 Y85.433 E.01292
G1 X138.582 Y85.967 E.01677
G1 X138.873 Y86.258 E.01292
G1 X138.873 Y86.792 E.01677
G1 X138.582 Y86.501 E.01292
G1 X138.582 Y87.035 E.01677
G1 X138.873 Y87.326 E.01292
G1 X138.873 Y87.86 E.01677
G1 X138.582 Y87.569 E.01292
G1 X138.582 Y88.103 E.01677
G1 X138.873 Y88.394 E.01292
G1 X138.873 Y88.928 E.01677
G1 X138.582 Y88.637 E.01292
G1 X138.582 Y89.171 E.01677
G1 X138.873 Y89.462 E.01292
G1 X138.873 Y89.996 E.01677
G1 X138.582 Y89.705 E.01292
G1 X138.582 Y90.239 E.01677
G1 X138.873 Y90.53 E.01292
G1 X138.873 Y91.064 E.01677
G1 X138.582 Y90.773 E.01292
G1 X138.582 Y91.307 E.01677
G1 X138.873 Y91.598 E.01292
G1 X138.873 Y92.132 E.01677
G1 X138.582 Y91.841 E.01292
G1 X138.582 Y92.375 E.01677
G1 X138.873 Y92.666 E.01292
G1 X138.873 Y93.2 E.01677
G1 X138.582 Y92.909 E.01292
G1 X138.582 Y93.443 E.01677
G1 X138.873 Y93.734 E.01292
G1 X138.873 Y94.268 E.01677
G1 X138.582 Y93.977 E.01292
G1 X138.582 Y94.511 E.01677
G1 X138.873 Y94.802 E.01292
G1 X138.873 Y95.336 E.01677
G1 X138.582 Y95.045 E.01292
G1 X138.582 Y95.579 E.01677
G1 X138.873 Y95.87 E.01292
G1 X138.873 Y96.404 E.01677
G1 X138.582 Y96.113 E.01292
G1 X138.582 Y96.647 E.01677
G1 X138.873 Y96.938 E.01292
G1 X138.873 Y97.473 E.0168
G1 X138.582 Y97.182 E.01292
G1 X138.582 Y97.716 E.01677
G1 X138.873 Y98.007 E.01292
G1 X138.873 Y98.541 E.01677
G1 X138.582 Y98.25 E.01292
G1 X138.582 Y98.784 E.01677
G1 X138.873 Y99.075 E.01292
G1 X138.873 Y99.609 E.01677
G1 X138.582 Y99.318 E.01292
G1 X138.582 Y99.852 E.01677
G1 X138.873 Y100.143 E.01292
G1 X138.873 Y100.677 E.01677
G1 X138.582 Y100.386 E.01292
G1 X138.582 Y100.92 E.01677
G1 X138.873 Y101.211 E.01292
G1 X138.873 Y101.745 E.01677
G1 X138.582 Y101.454 E.01292
G1 X138.582 Y101.988 E.01677
G1 X138.873 Y102.279 E.01292
G1 X138.873 Y102.813 E.01677
G1 X138.582 Y102.522 E.01292
G1 X138.582 Y103.056 E.01677
G1 X138.873 Y103.347 E.01292
G1 X138.873 Y103.881 E.01677
G1 X138.582 Y103.59 E.01292
G1 X138.582 Y104.124 E.01677
G1 X138.873 Y104.415 E.01292
G1 X138.873 Y104.949 E.01677
G1 X138.582 Y104.658 E.01292
G1 X138.582 Y105.192 E.01677
G1 X138.873 Y105.483 E.01292
G1 X138.873 Y106.017 E.01677
G1 X138.582 Y105.726 E.01292
G1 X138.582 Y106.26 E.01677
G1 X138.873 Y106.551 E.01292
G1 X138.873 Y107.085 E.01677
G1 X138.582 Y106.794 E.01292
G1 X138.582 Y107.328 E.01677
G1 X138.873 Y107.619 E.01292
G1 X138.873 Y108.153 E.01677
G1 X138.582 Y107.862 E.01292
G1 X138.582 Y108.396 E.01677
G1 X138.873 Y108.687 E.01292
G1 X138.873 Y109.222 E.0168
G1 X138.582 Y108.931 E.01292
G1 X138.582 Y109.465 E.01677
G1 X138.873 Y109.756 E.01292
G1 X138.873 Y110.29 E.01677
G1 X138.582 Y109.999 E.01292
G1 X138.582 Y110.533 E.01677
G1 X138.873 Y110.824 E.01292
G1 X138.873 Y111.358 E.01677
G1 X138.582 Y111.067 E.01292
G1 X138.582 Y111.601 E.01677
G1 X138.873 Y111.892 E.01292
G1 X138.873 Y112.426 E.01677
G1 X138.582 Y112.135 E.01292
G1 X138.582 Y112.669 E.01677
G1 X138.873 Y112.96 E.01292
G1 X138.873 Y113.494 E.01677
G1 X138.582 Y113.203 E.01292
G1 X138.582 Y113.737 E.01677
G1 X138.873 Y114.028 E.01292
G1 X138.873 Y114.562 E.01677
G1 X138.582 Y114.271 E.01292
G1 X138.582 Y114.805 E.01677
G1 X138.873 Y115.096 E.01292
G1 X138.873 Y115.63 E.01677
G1 X138.582 Y115.339 E.01292
G1 X138.582 Y115.873 E.01677
G1 X138.873 Y116.164 E.01292
G1 X138.873 Y116.698 E.01677
G1 X138.582 Y116.407 E.01292
G1 X138.582 Y116.941 E.01677
G1 X138.873 Y117.232 E.01292
G1 X138.873 Y117.766 E.01677
G1 X138.582 Y117.475 E.01292
G1 X138.582 Y118.009 E.01677
G1 X138.873 Y118.3 E.01292
G1 X138.873 Y118.834 E.01677
G1 X138.582 Y118.543 E.01292
G1 X138.582 Y119.077 E.01677
G1 X138.873 Y119.368 E.01292
G1 X138.873 Y119.902 E.01677
G1 X138.582 Y119.611 E.01292
G1 X138.582 Y120.145 E.01677
G1 X138.873 Y120.436 E.01292
G1 X138.873 Y120.971 E.0168
G1 X138.582 Y120.68 E.01292
G1 X138.582 Y121.214 E.01677
G1 X138.873 Y121.505 E.01292
G1 X138.873 Y122.039 E.01677
G1 X138.582 Y121.748 E.01292
G1 X138.582 Y122.282 E.01677
G1 X138.873 Y122.573 E.01292
G1 X138.873 Y123.107 E.01677
G1 X138.582 Y122.816 E.01292
G1 X138.582 Y123.35 E.01677
G1 X138.873 Y123.641 E.01292
G1 X138.873 Y124.175 E.01677
G1 X138.582 Y123.884 E.01292
G1 X138.582 Y124.418 E.01677
G1 X138.873 Y124.709 E.01292
G1 X138.873 Y125.243 E.01677
G1 X138.582 Y124.952 E.01292
G1 X138.582 Y125.486 E.01677
G1 X138.873 Y125.777 E.01292
G1 X138.873 Y126.311 E.01677
G1 X138.582 Y126.02 E.01292
G1 X138.582 Y126.554 E.01677
G1 X138.873 Y126.845 E.01292
G1 X138.873 Y127.379 E.01677
G1 X138.582 Y127.088 E.01292
G1 X138.582 Y127.622 E.01677
G1 X138.873 Y127.913 E.01292
G1 X138.873 Y128.447 E.01677
G1 X138.582 Y128.156 E.01292
G1 X138.582 Y128.69 E.01677
G1 X138.873 Y128.981 E.01292
G1 X138.873 Y129.515 E.01677
G1 X138.582 Y129.224 E.01292
G1 X138.582 Y129.758 E.01677
G1 X138.873 Y130.049 E.01292
G1 X138.873 Y130.583 E.01677
G1 X138.582 Y130.292 E.01292
G1 X138.582 Y130.826 E.01677
G1 X138.873 Y131.117 E.01292
G1 X138.873 Y131.651 E.01677
G1 X138.582 Y131.36 E.01292
G1 X138.582 Y131.894 E.01677
G1 X138.873 Y132.185 E.01292
G1 X138.873 Y132.72 E.0168
G1 X138.582 Y132.429 E.01292
G1 X138.582 Y132.963 E.01677
G1 X138.873 Y133.254 E.01292
G1 X138.873 Y133.788 E.01677
G1 X138.582 Y133.497 E.01292
G1 X138.582 Y134.031 E.01677
G1 X138.873 Y134.322 E.01292
G1 X138.873 Y134.856 E.01677
G1 X138.582 Y134.565 E.01292
G1 X138.582 Y135.099 E.01677
G1 X138.873 Y135.39 E.01292
G1 X138.873 Y135.924 E.01677
G1 X138.582 Y135.633 E.01292
G1 X138.582 Y136.167 E.01677
G1 X138.873 Y136.458 E.01292
G1 X138.873 Y136.992 E.01677
G1 X138.582 Y136.701 E.01292
G1 X138.582 Y137.235 E.01677
G1 X138.873 Y137.526 E.01292
G1 X138.873 Y138.06 E.01677
G1 X138.582 Y137.769 E.01292
G1 X138.582 Y138.303 E.01677
G1 X138.873 Y138.594 E.01292
G1 X138.873 Y139.128 E.01677
G1 X138.582 Y138.837 E.01292
G1 X138.582 Y139.371 E.01677
G1 X138.873 Y139.662 E.01292
G1 X138.873 Y140.196 E.01677
G1 X138.582 Y139.905 E.01292
G1 X138.582 Y140.439 E.01677
G1 X138.873 Y140.73 E.01292
G1 X138.873 Y141.264 E.01677
G1 X138.582 Y140.973 E.01292
G1 X138.582 Y141.507 E.01677
G1 X138.873 Y141.798 E.01292
G1 X138.873 Y142.332 E.01677
G1 X138.582 Y142.041 E.01292
G1 X138.582 Y142.575 E.01677
G1 X138.873 Y142.866 E.01292
G1 X138.873 Y143.4 E.01677
G1 X138.582 Y143.109 E.01292
G1 X138.582 Y143.643 E.01677
G1 X138.873 Y143.934 E.01292
G1 X138.873 Y144.469 E.0168
G1 X138.582 Y144.178 E.01292
G1 X138.582 Y144.712 E.01677
G1 X138.873 Y145.003 E.01292
G1 X138.873 Y145.537 E.01677
G1 X138.582 Y145.246 E.01292
G1 X138.582 Y145.78 E.01677
G1 X138.873 Y146.071 E.01292
G1 X138.873 Y146.605 E.01677
G1 X138.582 Y146.314 E.01292
G1 X138.582 Y146.848 E.01677
G1 X138.873 Y147.139 E.01292
G1 X138.873 Y147.673 E.01677
G1 X138.582 Y147.382 E.01292
G1 X138.567 Y147.901 E.0163
G1 X138.873 Y148.207 E.01359
G1 X138.873 Y148.527 E.01005
G1 X138.849 Y148.718 E.00604
G1 X138.429 Y148.297 E.01867
G1 X138.401 Y148.37 E.00246
G1 X138.312 Y148.496 E.00484
G1 X138.207 Y148.609 E.00484
G1 X138.661 Y149.064 E.02018
G1 X138.588 Y149.128 E.00305
G1 X138.453 Y149.2 E.0048
G1 X138.301 Y149.237 E.00491
G1 X137.88 Y148.816 E.01869
G1 X137.568 Y148.941 E.01055
G1 X137.478 Y148.948 E.00283
G1 X137.775 Y149.245 E.01319
G1 X137.241 Y149.246 E.01677
