; generated by PrusaSlicer 2.6.1+win64 on 2024-05-23 at 09:45:26 UTC

; 

; external perimeters extrusion width = 0.42mm
; perimeters extrusion width = 0.44mm
; infill extrusion width = 0.44mm
; solid infill extrusion width = 0.44mm
; top infill extrusion width = 0.40mm
; support material extrusion width = 0.36mm
; first layer extrusion width = 0.42mm

M201 X500 Y500 Z100 E5000 ; sets maximum accelerations, mm/sec^2
M203 X500 Y500 Z10 E60 ; sets maximum feedrates, mm / sec
M204 S500 T1000 ; sets acceleration (S) and retract acceleration (R), mm/sec^2
M205 X8.00 Y8.00 Z0.40 E5.00 ; sets the jerk limits, mm/sec
M205 S0 T0 ; sets the minimum extruding and travel feed rate, mm/sec
;TYPE:Custom
G90 ; use absolute coordinates
M83 ; extruder relative mode
M104 S150 ; set temporary nozzle temp to prevent oozing during homing
M140 S60 ; set final bed temp
G4 S30 ; allow partial nozzle warmup
G28 ; home all axis and restore leveling
G1 Z50 F240
G1 X2.0 Y10 F3000
M104 S215 ; set final nozzle temp
M190 S60 ; wait for bed temp to stabilize
M109 S215 ; wait for nozzle temp to stabilize
G1 Z0.28 F240
G92 E0
G1 X2.0 Y140 E10 F1500 ; prime the nozzle
G1 X2.3 Y140 F5000
G92 E0
G1 X2.3 Y10 E10 F1200 ; prime the nozzle
G92 E0
G21 ; set units to millimeters
G90 ; use absolute coordinates
M83 ; use relative distances for extrusion
; Filament gcode
M107
;LAYER_CHANGE
;Z:0.2
;HEIGHT:0.2
;BEFORE_LAYER_CHANGE
G92 E0
;0.2


G1 E-.8 F1800
G1 Z.2 F9000
;AFTER_LAYER_CHANGE
;0.2
G1 X102.693 Y72.623
G1 E.8 F1800
M204 S500
;TYPE:Skirt/Brim
;WIDTH:0.42
G1 F1200
G1 X103.9 Y71.526 E.05114
G1 X105.486 Y71.123 E.05131
G1 X120.342 Y71.062 E.4658
G1 X121.925 Y71.456 E.05115
G1 X123.138 Y72.546 E.05113
G1 X123.716 Y74.304 E.05802
G1 X123.911 Y79.196 E.15351
G1 X123.855 Y80.332 E.03566
G1 X111.666 Y144.983 E2.0628
G1 X111.161 Y146.177 E.04065
G1 X110.385 Y147.214 E.04061
G1 X109.383 Y148.036 E.04064
G1 X108.214 Y148.594 E.04061
G1 X107.35 Y148.807 E.0279
G1 X106.5 Y148.877 E.02674
G1 X101.296 Y148.871 E.16317
G1 X100.017 Y148.666 E.04061
G1 X98.823 Y148.161 E.04065
G1 X97.786 Y147.385 E.04061
G1 X96.964 Y146.383 E.04064
G1 X96.65 Y145.815 E.02035
G1 X96.334 Y144.983 E.0279
G1 X96.193 Y144.35 E.02033
G1 X96.123 Y143.505 E.02659
G1 X96.123 Y133.5 E.3137
G1 X102.14 Y74.158 E1.87017
G1 X102.672 Y72.679 E.04928
; printing object Support_leds_v1.stl id:0 copy 0
;WIPE_START
G1 F7200
G1 X103.9 Y71.526 E-.40006
G1 X105.486 Y71.123 E-.38865
G1 X105.534 Y71.123 E-.01129
;WIPE_END
G1 X120.183 Y79.707 F9000
G1 E.8 F1800
;TYPE:Support material interface
;WIDTH:0.36
G1 F1200
G1 X119.92 Y79.707 E.00693
G1 X119.957 Y79.67 E.00138
G1 X119.957 Y74.439 E.13792
G1 X120.342 Y74.439 E.01015
G1 X120.342 Y79.707 E.13889
G1 X120.537 Y79.707 E.00514
G1 X120.537 Y79.33 E.00994
;WIPE_START
G1 F7200
G1 X120.537 Y79.707 E-.08954
G1 X120.342 Y79.707 E-.04631
G1 X120.342 Y76.911 E-.66415
;WIPE_END
G1 X118.049 Y78.436 F9000
G1 E.8 F1800
;TYPE:Perimeter
;WIDTH:0.419999
G1 F1200
G1 X108.235 Y78.447 E.30771
G1 X107.9 Y78.566 E.01115
G1 X107.578 Y78.88 E.0141
G1 X107.436 Y79.379 E.01627
G1 X107.436 Y142.861 E1.99043
G1 X107.41 Y143.651 E.02478
G1 X107.322 Y143.932 E.00923
G1 X107.14 Y144.165 E.00927
G1 X106.829 Y144.368 E.01164
G1 X106.468 Y144.436 E.01152
G1 X101.587 Y144.436 E.15304
G1 X101.229 Y144.383 E.01135
G1 X100.884 Y144.195 E.01232
G1 X100.647 Y143.859 E.01289
G1 X100.57 Y143.567 E.00947
G1 X100.564 Y142.977 E.0185
G1 X100.788 Y143.356 E.0138
G1 X101.105 Y143.524 E.01125
G1 X101.379 Y143.564 E.00868
G1 X105.621 Y143.564 E.133
G1 X105.784 Y143.55 E.00513
G1 X106.142 Y143.408 E.01208
G1 X106.358 Y143.21 E.00919
G1 X106.55 Y142.784 E.01465
G1 X106.564 Y142.621 E.00513
G1 X106.564 Y75.564 E2.10252
G1 X118.049 Y75.564 E.3601
G1 X118.049 Y78.376 E.08817
G1 X118.426 Y78.813 F9000
G1 F1200
G1 X108.379 Y78.813 E.31502
G1 X108.092 Y78.891 E.00933
G1 X107.898 Y79.08 E.00849
G1 X107.813 Y79.379 E.00975
G1 X107.813 Y143.407 E2.00755
G1 X107.77 Y143.813 E.0128
G1 X107.591 Y144.206 E.01354
G1 X107.333 Y144.497 E.01219
G1 X106.964 Y144.724 E.01358
G1 X106.479 Y144.813 E.01546
G1 X101.587 Y144.813 E.15338
G1 X101.283 Y144.782 E.00958
G1 X100.981 Y144.692 E.00988
G1 X100.707 Y144.531 E.00996
G1 X100.48 Y144.308 E.00998
G1 X100.276 Y143.964 E.01254
G1 X100.187 Y143.464 E.01592
;WIDTH:0.461465
G1 X100.208 Y143.183 E.00981
;WIDTH:0.50293
G1 X100.229 Y142.903 E.01074
;WIDTH:0.544395
G1 X100.249 Y142.623 E.01171
G1 X100.246 Y133.613 E.3757
;WIDTH:0.538234
G1 X100.295 Y133.388 E.00948
G1 X100.426 Y133.286 E.00684
G1 X100.594 Y133.286 E.00692
G1 X100.708 Y133.409 E.00691
G1 X100.742 Y133.613 E.00852
;WIDTH:0.544395
G1 X100.751 Y142.622 E.37566
;WIDTH:0.551052
G1 X100.757 Y142.731 E.00461
G1 X100.846 Y142.841 E.00598
;WIDTH:0.507368
G1 X100.935 Y142.952 E.00549
;WIDTH:0.463684
G1 X101.024 Y143.062 E.00495
;WIDTH:0.419999
G1 X101.15 Y143.139 E.00463
G1 X101.379 Y143.187 E.00734
G1 X105.621 Y143.187 E.133
G1 X105.934 Y143.093 E.01025
G1 X106.102 Y142.919 E.00758
G1 X106.187 Y142.621 E.00972
G1 X106.187 Y75.187 E2.11434
G1 X118.426 Y75.187 E.38374
G1 X118.426 Y77 E.05685
G1 X118.426 Y78.753 E.05496
G1 X118.803 Y79.19 F9000
;TYPE:External perimeter
G1 F1200
G1 X108.379 Y79.19 E.32684
G1 X108.283 Y79.216 E.00312
G1 X108.19 Y79.379 E.00588
G1 X108.19 Y143.407 E2.00755
G1 X108.139 Y143.904 E.01566
G1 X107.995 Y144.285 E.01277
G1 X107.764 Y144.62 E.01276
G1 X107.459 Y144.89 E.01277
G1 X107.099 Y145.079 E.01275
G1 X106.491 Y145.19 E.01938
G1 X101.587 Y145.19 E.15376
G1 X101.238 Y145.157 E.01099
G1 X100.847 Y145.045 E.01275
G1 X100.493 Y144.842 E.01279
G1 X100.198 Y144.558 E.01284
G1 X99.921 Y144.099 E.01681
G1 X99.81 Y143.491 E.01938
G1 X99.81 Y133.613 E.30972
G1 X99.899 Y133.174 E.01404
G1 X100.126 Y132.928 E.0105
G1 X100.443 Y132.819 E.01051
G1 X100.775 Y132.874 E.01055
G1 X101.04 Y133.081 E.01054
G1 X101.177 Y133.395 E.01074
G1 X101.19 Y142.622 E.28931
G1 X101.26 Y142.768 E.00508
G1 X101.379 Y142.81 E.00396
G1 X105.621 Y142.81 E.133
G1 X105.743 Y142.766 E.00407
G1 X105.81 Y142.621 E.00501
G1 X105.81 Y74.81 E2.12616
G1 X118.803 Y74.81 E.40739
G1 X118.803 Y79.13 E.13545
G1 X118.405 Y79.147 F9000
;WIPE_START
G1 F7200
G1 X115.435 Y79.149 E-.8
;WIPE_END
G1 X117.928 Y76.448 F9000
G1 E.8 F1800
;TYPE:Solid infill
;WIDTH:0.420547
G1 F1200
G1 X117.334 Y75.855 E.02635
G1 X116.8 Y75.855 E.01677
G1 X117.759 Y76.813 E.04256
G1 X117.759 Y77.347 E.01677
G1 X116.266 Y75.855 E.06628
G1 X115.732 Y75.855 E.01677
G1 X117.759 Y77.881 E.08999
G1 X117.759 Y78.145 E.00829
G1 X117.489 Y78.145 E.00848
G1 X115.198 Y75.855 E.10171
G1 X114.664 Y75.855 E.01677
G1 X116.955 Y78.145 E.10171
G1 X116.421 Y78.145 E.01677
G1 X114.13 Y75.855 E.10171
G1 X113.596 Y75.855 E.01677
G1 X115.887 Y78.145 E.10171
G1 X115.353 Y78.145 E.01677
G1 X113.062 Y75.855 E.10171
G1 X112.528 Y75.855 E.01677
G1 X114.819 Y78.145 E.10171
G1 X114.285 Y78.145 E.01677
G1 X111.994 Y75.855 E.10171
G1 X111.46 Y75.855 E.01677
G1 X113.751 Y78.145 E.10171
G1 X113.217 Y78.145 E.01677
G1 X110.926 Y75.855 E.10171
G1 X110.392 Y75.855 E.01677
G1 X112.683 Y78.145 E.10171
G1 X112.149 Y78.145 E.01677
G1 X109.858 Y75.855 E.10171
G1 X109.324 Y75.855 E.01677
G1 X111.615 Y78.145 E.10171
G1 X111.081 Y78.145 E.01677
G1 X108.79 Y75.855 E.10171
G1 X108.256 Y75.855 E.01677
G1 X110.547 Y78.145 E.10171
G1 X110.013 Y78.145 E.01677
G1 X107.722 Y75.855 E.10171
G1 X107.188 Y75.855 E.01677
G1 X109.479 Y78.145 E.10171
G1 X108.945 Y78.145 E.01677
G1 X106.855 Y76.055 E.09281
G1 X106.855 Y76.589 E.01677
G1 X108.411 Y78.145 E.0691
G1 X108.185 Y78.16 E.00711
G1 X107.968 Y78.237 E.00723
G1 X106.855 Y77.124 E.04942
G1 X106.855 Y77.658 E.01677
G1 X107.629 Y78.432 E.03437
G1 X107.359 Y78.696 E.01186
G1 X106.855 Y78.192 E.02238
G1 X106.855 Y78.726 E.01677
G1 X107.223 Y79.094 E.01634
G1 X107.145 Y79.364 E.00882
G1 X107.145 Y79.551 E.00587
G1 X106.855 Y79.26 E.0129
G1 X106.855 Y79.794 E.01677
G1 X107.145 Y80.085 E.0129
G1 X107.145 Y80.619 E.01677
G1 X106.855 Y80.328 E.0129
G1 X106.855 Y80.862 E.01677
G1 X107.145 Y81.153 E.0129
G1 X107.145 Y81.687 E.01677
G1 X106.855 Y81.396 E.0129
G1 X106.855 Y81.93 E.01677
G1 X107.145 Y82.221 E.0129
G1 X107.145 Y82.755 E.01677
G1 X106.855 Y82.464 E.0129
G1 X106.855 Y82.998 E.01677
G1 X107.145 Y83.289 E.0129
G1 X107.145 Y83.823 E.01677
G1 X106.855 Y83.532 E.0129
G1 X106.855 Y84.066 E.01677
G1 X107.145 Y84.357 E.0129
G1 X107.145 Y84.891 E.01677
G1 X106.855 Y84.6 E.0129
G1 X106.855 Y85.134 E.01677
G1 X107.145 Y85.425 E.0129
G1 X107.145 Y85.959 E.01677
G1 X106.855 Y85.668 E.0129
G1 X106.855 Y86.202 E.01677
G1 X107.145 Y86.493 E.0129
G1 X107.145 Y87.027 E.01677
G1 X106.855 Y86.736 E.0129
G1 X106.855 Y87.27 E.01677
G1 X107.145 Y87.561 E.0129
G1 X107.145 Y88.095 E.01677
G1 X106.855 Y87.804 E.0129
G1 X106.855 Y88.338 E.01677
G1 X107.145 Y88.629 E.0129
G1 X107.145 Y89.164 E.0168
G1 X106.855 Y88.873 E.0129
G1 X106.855 Y89.407 E.01677
G1 X107.145 Y89.698 E.0129
G1 X107.145 Y90.232 E.01677
G1 X106.855 Y89.941 E.0129
G1 X106.855 Y90.475 E.01677
G1 X107.145 Y90.766 E.0129
G1 X107.145 Y91.3 E.01677
G1 X106.855 Y91.009 E.0129
G1 X106.855 Y91.543 E.01677
G1 X107.145 Y91.834 E.0129
G1 X107.145 Y92.368 E.01677
G1 X106.855 Y92.077 E.0129
G1 X106.855 Y92.611 E.01677
G1 X107.145 Y92.902 E.0129
G1 X107.145 Y93.436 E.01677
G1 X106.855 Y93.145 E.0129
G1 X106.855 Y93.679 E.01677
G1 X107.145 Y93.97 E.0129
G1 X107.145 Y94.504 E.01677
G1 X106.855 Y94.213 E.0129
G1 X106.855 Y94.747 E.01677
G1 X107.145 Y95.038 E.0129
G1 X107.145 Y95.572 E.01677
G1 X106.855 Y95.281 E.0129
G1 X106.855 Y95.815 E.01677
G1 X107.145 Y96.106 E.0129
G1 X107.145 Y96.64 E.01677
G1 X106.855 Y96.349 E.0129
G1 X106.855 Y96.883 E.01677
G1 X107.145 Y97.174 E.0129
G1 X107.145 Y97.708 E.01677
G1 X106.855 Y97.417 E.0129
G1 X106.855 Y97.951 E.01677
G1 X107.145 Y98.242 E.0129
G1 X107.145 Y98.776 E.01677
G1 X106.855 Y98.485 E.0129
G1 X106.855 Y99.019 E.01677
G1 X107.145 Y99.31 E.0129
G1 X107.145 Y99.844 E.01677
G1 X106.855 Y99.553 E.0129
G1 X106.855 Y100.087 E.01677
G1 X107.145 Y100.378 E.0129
G1 X107.145 Y100.913 E.0168
G1 X106.855 Y100.622 E.0129
G1 X106.855 Y101.156 E.01677
G1 X107.145 Y101.447 E.0129
G1 X107.145 Y101.981 E.01677
G1 X106.855 Y101.69 E.0129
G1 X106.855 Y102.224 E.01677
G1 X107.145 Y102.515 E.0129
G1 X107.145 Y103.049 E.01677
G1 X106.855 Y102.758 E.0129
G1 X106.855 Y103.292 E.01677
G1 X107.145 Y103.583 E.0129
G1 X107.145 Y104.117 E.01677
G1 X106.855 Y103.826 E.0129
G1 X106.855 Y104.36 E.01677
G1 X107.145 Y104.651 E.0129
G1 X107.145 Y105.185 E.01677
G1 X106.855 Y104.894 E.0129
G1 X106.855 Y105.428 E.01677
G1 X107.145 Y105.719 E.0129
G1 X107.145 Y106.253 E.01677
G1 X106.855 Y105.962 E.0129
G1 X106.855 Y106.496 E.01677
G1 X107.145 Y106.787 E.0129
G1 X107.145 Y107.321 E.01677
G1 X106.855 Y107.03 E.0129
G1 X106.855 Y107.564 E.01677
G1 X107.145 Y107.855 E.0129
G1 X107.145 Y108.389 E.01677
G1 X106.855 Y108.098 E.0129
G1 X106.855 Y108.632 E.01677
G1 X107.145 Y108.923 E.0129
G1 X107.145 Y109.457 E.01677
G1 X106.855 Y109.166 E.0129
G1 X106.855 Y109.7 E.01677
G1 X107.145 Y109.991 E.0129
G1 X107.145 Y110.525 E.01677
G1 X106.855 Y110.234 E.0129
G1 X106.855 Y110.768 E.01677
G1 X107.145 Y111.059 E.0129
G1 X107.145 Y111.593 E.01677
G1 X106.855 Y111.302 E.0129
G1 X106.855 Y111.836 E.01677
G1 X107.145 Y112.127 E.0129
G1 X107.145 Y112.662 E.0168
G1 X106.855 Y112.371 E.0129
G1 X106.855 Y112.905 E.01677
G1 X107.145 Y113.196 E.0129
G1 X107.145 Y113.73 E.01677
G1 X106.855 Y113.439 E.0129
G1 X106.855 Y113.973 E.01677
G1 X107.145 Y114.264 E.0129
G1 X107.145 Y114.798 E.01677
G1 X106.855 Y114.507 E.0129
G1 X106.855 Y115.041 E.01677
G1 X107.145 Y115.332 E.0129
G1 X107.145 Y115.866 E.01677
G1 X106.855 Y115.575 E.0129
G1 X106.855 Y116.109 E.01677
G1 X107.145 Y116.4 E.0129
G1 X107.145 Y116.934 E.01677
G1 X106.855 Y116.643 E.0129
G1 X106.855 Y117.177 E.01677
G1 X107.145 Y117.468 E.0129
G1 X107.145 Y118.002 E.01677
G1 X106.855 Y117.711 E.0129
G1 X106.855 Y118.245 E.01677
G1 X107.145 Y118.536 E.0129
G1 X107.145 Y119.07 E.01677
G1 X106.855 Y118.779 E.0129
G1 X106.855 Y119.313 E.01677
G1 X107.145 Y119.604 E.0129
G1 X107.145 Y120.138 E.01677
G1 X106.855 Y119.847 E.0129
G1 X106.855 Y120.381 E.01677
G1 X107.145 Y120.672 E.0129
G1 X107.145 Y121.206 E.01677
G1 X106.855 Y120.915 E.0129
G1 X106.855 Y121.449 E.01677
G1 X107.145 Y121.74 E.0129
G1 X107.145 Y122.274 E.01677
G1 X106.855 Y121.983 E.0129
G1 X106.855 Y122.517 E.01677
G1 X107.145 Y122.808 E.0129
G1 X107.145 Y123.342 E.01677
G1 X106.855 Y123.051 E.0129
G1 X106.855 Y123.585 E.01677
G1 X107.145 Y123.876 E.0129
G1 X107.145 Y124.411 E.0168
G1 X106.855 Y124.12 E.0129
G1 X106.855 Y124.654 E.01677
G1 X107.145 Y124.945 E.0129
G1 X107.145 Y125.479 E.01677
G1 X106.855 Y125.188 E.0129
G1 X106.855 Y125.722 E.01677
G1 X107.145 Y126.013 E.0129
G1 X107.145 Y126.547 E.01677
G1 X106.855 Y126.256 E.0129
G1 X106.855 Y126.79 E.01677
G1 X107.145 Y127.081 E.0129
G1 X107.145 Y127.615 E.01677
G1 X106.855 Y127.324 E.0129
G1 X106.855 Y127.858 E.01677
G1 X107.145 Y128.149 E.0129
G1 X107.145 Y128.683 E.01677
G1 X106.855 Y128.392 E.0129
G1 X106.855 Y128.926 E.01677
G1 X107.145 Y129.217 E.0129
G1 X107.145 Y129.751 E.01677
G1 X106.855 Y129.46 E.0129
G1 X106.855 Y129.994 E.01677
G1 X107.145 Y130.285 E.0129
G1 X107.145 Y130.819 E.01677
G1 X106.855 Y130.528 E.0129
G1 X106.855 Y131.062 E.01677
G1 X107.145 Y131.353 E.0129
G1 X107.145 Y131.887 E.01677
G1 X106.855 Y131.596 E.0129
G1 X106.855 Y132.13 E.01677
G1 X107.145 Y132.421 E.0129
G1 X107.145 Y132.955 E.01677
G1 X106.855 Y132.664 E.0129
G1 X106.855 Y133.198 E.01677
G1 X107.145 Y133.489 E.0129
G1 X107.145 Y134.023 E.01677
G1 X106.855 Y133.732 E.0129
G1 X106.855 Y134.266 E.01677
G1 X107.145 Y134.557 E.0129
G1 X107.145 Y135.091 E.01677
G1 X106.855 Y134.8 E.0129
G1 X106.855 Y135.334 E.01677
G1 X107.145 Y135.625 E.0129
G1 X107.145 Y136.159 E.01677
G1 X106.855 Y135.869 E.01288
G1 X106.855 Y136.403 E.01677
G1 X107.145 Y136.694 E.0129
G1 X107.145 Y137.228 E.01677
G1 X106.855 Y136.937 E.0129
G1 X106.855 Y137.471 E.01677
G1 X107.145 Y137.762 E.0129
G1 X107.145 Y138.296 E.01677
G1 X106.855 Y138.005 E.0129
G1 X106.855 Y138.539 E.01677
G1 X107.145 Y138.83 E.0129
G1 X107.145 Y139.364 E.01677
G1 X106.855 Y139.073 E.0129
G1 X106.855 Y139.607 E.01677
G1 X107.145 Y139.898 E.0129
G1 X107.145 Y140.432 E.01677
G1 X106.855 Y140.141 E.0129
G1 X106.855 Y140.675 E.01677
G1 X107.145 Y140.966 E.0129
G1 X107.145 Y141.5 E.01677
G1 X106.855 Y141.209 E.0129
G1 X106.855 Y141.743 E.01677
G1 X107.145 Y142.034 E.0129
G1 X107.145 Y142.568 E.01677
G1 X106.855 Y142.277 E.0129
G1 X106.84 Y142.796 E.0163
G1 X107.145 Y143.102 E.01357
G1 X107.145 Y143.422 E.01005
G1 X107.122 Y143.613 E.00604
G1 X106.702 Y143.192 E.01867
G1 X106.674 Y143.266 E.00248
G1 X106.585 Y143.392 E.00484
G1 X106.48 Y143.505 E.00484
G1 X106.934 Y143.959 E.02016
G1 X106.861 Y144.024 E.00307
G1 X106.726 Y144.095 E.00479
G1 X106.574 Y144.132 E.00491
G1 X106.153 Y143.712 E.01867
G1 X105.841 Y143.836 E.01054
G1 X105.751 Y143.844 E.00284
G1 X106.048 Y144.14 E.01317
G1 X105.514 Y144.141 E.01677
G1 X105.228 Y143.855 E.0127
G1 X104.694 Y143.855 E.01677
G1 X104.981 Y144.142 E.01274
G1 X104.447 Y144.142 E.01677
G1 X104.16 Y143.855 E.01274
G1 X103.626 Y143.855 E.01677
G1 X103.914 Y144.143 E.01279
G1 X103.38 Y144.143 E.01677
G1 X103.092 Y143.855 E.01279
G1 X102.557 Y143.855 E.0168
G1 X102.847 Y144.144 E.01286
G1 X102.314 Y144.145 E.01674
G1 X102.023 Y143.855 E.0129
G1 X101.489 Y143.855 E.01677
G1 X101.95 Y144.315 E.02045
; stop printing object Support_leds_v1.stl id:0 copy 0
M106 S255
;LAYER_CHANGE
;Z:0.4
;HEIGHT:0.2
;BEFORE_LAYER_CHANGE
G92 E0
;0.4


;WIPE_START
G1 F7200
G1 X101.489 Y143.855 E-.15467
G1 X102.023 Y143.855 E-.12682
G1 X102.314 Y144.145 E-.09757
G1 X102.847 Y144.144 E-.12659
G1 X102.557 Y143.855 E-.09724
G1 X103.092 Y143.855 E-.12706
G1 X103.301 Y144.064 E-.07005
;WIPE_END
G1 Z.4 F9000
;AFTER_LAYER_CHANGE
;0.4
M104 S210 ; set temperature
G1 X103.295 Y148.873
G1 E.8 F1800
;TYPE:Skirt/Brim
;WIDTH:0.42
G1 F2400
G1 X101.296 Y148.871 E.06268
G1 X100.017 Y148.666 E.04061
G1 X98.823 Y148.161 E.04065
G1 X97.786 Y147.385 E.04061
G1 X96.964 Y146.383 E.04064
